src/assets/svg/InviteNotification.svg

<svg width="24" height="24" viewBox="0 0 24 24" fill="none" xmlns="http://www.w3.org/2000/svg">
<path d="M12.0197 2.90967C8.70972 2.90967 6.01972 5.59967 6.01972 8.90967V11.7997C6.01972 12.4097 5.75972 13.3397 5.44972 13.8597L4.29972 15.7697C3.58972 16.9497 4.07972 18.2597 5.37972 18.6997C9.68972 20.1397 14.3397 20.1397 18.6497 18.6997C19.8597 18.2997 20.3897 16.8697 19.7297 15.7697L18.5797 13.8597C18.2797 13.3397 18.0197 12.4097 18.0197 11.7997V8.90967C18.0197 5.60967 15.3197 2.90967 12.0197 2.90967Z" stroke="#748BFF" stroke-miterlimit="10" stroke-linecap="round"/>
<path d="M13.8703 3.19994C13.5603 3.10994 13.2403 3.03994 12.9103 2.99994C11.9503 2.87994 11.0303 2.94994 10.1703 3.19994C10.4603 2.45994 11.1803 1.93994 12.0203 1.93994C12.8603 1.93994 13.5803 2.45994 13.8703 3.19994Z" stroke="#748BFF" stroke-miterlimit="10" stroke-linecap="round" stroke-linejoin="round"/>
<path d="M15.02 19.0598C15.02 20.7098 13.67 22.0598 12.02 22.0598C11.2 22.0598 10.44 21.7198 9.90002 21.1798C9.36002 20.6398 9.02002 19.8798 9.02002 19.0598" stroke="#748BFF" stroke-miterlimit="10"/>
</svg>

<svg xmlns="http://www.w3.org/2000/svg" width="24" height="24" fill="none"><path stroke="#748BFF" stroke-linecap="round" stroke-miterlimit="10" d="M12.02 2.91c-3.31 0-6 2.69-6 6v2.89c0 .61-.26 1.54-.57 2.06L4.3 15.77c-.71 1.18-.22 2.49 1.08 2.93 4.31 1.44 8.96 1.44 13.27 0 1.21-.4 1.74-1.83 1.08-2.93l-1.15-1.91c-.3-.52-.56-1.45-.56-2.06V8.91c0-3.3-2.7-6-6-6Z"/><path stroke="#748BFF" stroke-linecap="round" stroke-linejoin="round" stroke-miterlimit="10" d="M13.87 3.2a6.754 6.754 0 0 0-3.7 0c.29-.74 1.01-1.26 1.85-1.26.84 0 1.56.52 1.85 1.26Z"/><path stroke="#748BFF" stroke-miterlimit="10" d="M15.02 19.06c0 1.65-1.35 3-3 3-.82 0-1.58-.34-2.12-.88a3.01 3.01 0 0 1-.88-2.12"/></svg>
